**kern	**silbe	**kern	**silbe	**harmony	**phrase	**leadinstrument	**rhyme	**timestamp	**harte
*ICvox	*	*ICvox	*	*M4/4	*	*	*	*	*M4/4
*VRlead	*	*VRharmonize	*	*	*	*	*	*	*
*Hstimme	*	*Nstimme	*	*	*	*	*	*	*
*G:	*	*G:	*	*G:	*	*	*	*	*G:
*M4/4	*	*M4/4	*	*	*	*	*	*	*
*clefG2	*	*clefG2	*	*	*	*	*	*	*
r;	.	r;	.	1r;	.	r	.	0	N.C.
=1	=1	=1	=1	=1	=1	=1	=1	=1	=1
*>Letter>A	*>Letter>A	*>Letter>A	*>Letter>A	*>Letter>A	*>Letter>A	*>Letter>A	*>Letter>A	*>Letter>A	*>Letter>A
*>Label>Intro	*>Label>Intro	*>Label>Intro	*>Label>Intro	*>Label>Intro	*>Label>Intro	*>Label>Intro	*>Label>Intro	*>Label>Intro	*>Label>Intro
1r	.	1r	.	1GM	newline	harmonica	.	0.418	G:maj
=2	=2	=2	=2	=2	=2	=2	=2	=2	=2
1r	.	1r	.	1CM	.	harmonica	.	2.066	C:maj
=3	=3	=3	=3	=3	=3	=3	=3	=3	=3
1r	.	1r	.	1GM	.	harmonica	.	3.714	G:maj
=4	=4	=4	=4	=4	=4	=4	=4	=4	=4
1r	.	1r	.	1CM	.	harmonica	.	5.363	C:maj
=5	=5	=5	=5	=5	=5	=5	=5	=5	=5
1r	.	1r	.	1GM	newline	harmonica	.	7.011	G:maj
=6	=6	=6	=6	=6	=6	=6	=6	=6	=6
1r	.	1r	.	1CM	.	harmonica	.	8.629	C:maj
=7	=7	=7	=7	=7	=7	=7	=7	=7	=7
1r	.	1r	.	1GM	.	harmonica	.	10.248	G:maj
=8	=8	=8	=8	=8	=8	=8	=8	=8	=8
1r	.	1r	.	1GM	.	harmonica	.	11.866	G:maj
=9	=9	=9	=9	=9	=9	=9	=9	=9	=9
*>Letter>B	*>Letter>B	*>Letter>B	*>Letter>B	*>Letter>B	*>Letter>B	*>Letter>B	*>Letter>B	*>Letter>B	*>Letter>B
*>Label>Verse	*>Label>Verse	*>Label>Verse	*>Label>Verse	*>Label>Verse	*>Label>Verse	*>Label>Verse	*>Label>Verse	*>Label>Verse	*>Label>Verse
2d	Love	2G	Love	1GM	newline	voice	.	13.485	G:maj
4d	love	4G	love	.	.	.	.	.	.
8f	me	8d	me	.	.	.	.	.	.
[8g	do	[8c	do	.	.	.	A	.	.
=10	=10	=10	=10	=10	=10	=10	=10	=10	=10
8g]	_	8c]	_	1CM	.	voice	.	15.11	C:maj
8r	.	8r	.	.	.	.	.	.	.
4r	.	4r	.	.	.	.	.	.	.
4r	.	4r	.	.	.	.	.	.	.
4f	You	4G	You	.	.	.	.	.	.
=11	=11	=11	=11	=11	=11	=11	=11	=11	=11
2d	know	2G	know	1GM	.	voice	.	16.735	G:maj
4d	I	4G	I	.	.	.	.	.	.
8f	love	8d	love	.	.	.	.	.	.
[8g	you	[8c	you	.	.	.	A	.	.
=12	=12	=12	=12	=12	=12	=12	=12	=12	=12
8g]	_	8c]	_	1CM	.	voice	.	18.36	C:maj
8r	.	8r	.	.	.	.	.	.	.
4r	.	4r	.	.	.	.	.	.	.
4r	.	4r	.	.	.	.	.	.	.
4f	I'll	4G	I'll	.	.	.	.	.	.
=13	=13	=13	=13	=13	=13	=13	=13	=13	=13
2d	al-	2G	al-	1GM	newline	voice	.	19.985	G:maj
4d	-ways	4G	-ways	.	.	.	.	.	.
8f	be	8d	be	.	.	.	.	.	.
[8g	true	[8c	true	.	.	.	A	.	.
=14	=14	=14	=14	=14	=14	=14	=14	=14	=14
8g]	_	8c]	_	1CM	.	voice	.	21.636	C:maj
8r	.	8r	.	.	.	.	.	.	.
4r	.	4r	.	.	.	.	.	.	.
4r	.	4r	.	.	.	.	.	.	.
4f	so	4d	so	.	.	.	.	.	.
=15	=15	=15	=15	=15	=15	=15	=15	=15	=15
2g	please	2e	please	1CM	.	voice	.	23.286	C:maj
4g	_	4d	_	.	.	.	.	.	.
4g	_	4c	_	.	.	.	.	.	.
=16	=16	=16	=16	=16	=16	=16	=16	=16	=16
[1g	_	[1e	_	1CM	.	voice	.	24.937	C:maj
=17	=17	=17	=17	=17	=17	=17	=17	=17	=17
8g]	_	8e]	_	1CM	.	voice	.	26.588	C:maj
4.r	.	4.r	.	.	.	.	.	.	.
4G	Love	2r	.	.	.	.	.	.	.
4G	me	.	.	.	.	.	.	.	.
=18	=18	=18	=18	=18	=18	=18	=18	=18	=18
*>Letter>A	*>Letter>A	*>Letter>A	*>Letter>A	*>Letter>A	*>Letter>A	*>Letter>A	*>Letter>A	*>Letter>A	*>Letter>A
*>Label>Interlude	*>Label>Interlude	*>Label>Interlude	*>Label>Interlude	*>Label>Interlude	*>Label>Interlude	*>Label>Interlude	*>Label>Interlude	*>Label>Interlude	*>Label>Interlude
8B-	do	1r	.	1GM	newline	harmonica	A	28.238	G:maj
2..G	_	.	.	.	.	.	.	.	.
=19	=19	=19	=19	=19	=19	=19	=19	=19	=19
4r	.	1r	.	1CM	.	harmonica	.	29.872	C:maj
8d-	Woh	.	.	.	.	.	.	.	.
4c	_	.	.	.	.	.	.	.	.
4r	.	.	.	.	.	.	.	.	.
[8B-	Love	.	.	.	.	.	.	.	.
=20	=20	=20	=20	=20	=20	=20	=20	=20	=20
8B-]	_	1r	.	1GM	.	harmonica	.	31.507	G:maj
4G	me	.	.	.	.	.	.	.	.
[8G	do	.	.	.	.	.	A	.	.
2G]	_	.	.	.	.	.	.	.	.
=21	=21	=21	=21	=21	=21	=21	=21	=21	=21
1r	.	1r	.	1CM	.	harmonica	.	33.141	C:maj
=22	=22	=22	=22	=22	=22	=22	=22	=22	=22
*>Letter>B	*>Letter>B	*>Letter>B	*>Letter>B	*>Letter>B	*>Letter>B	*>Letter>B	*>Letter>B	*>Letter>B	*>Letter>B
*>Label>Verse	*>Label>Verse	*>Label>Verse	*>Label>Verse	*>Label>Verse	*>Label>Verse	*>Label>Verse	*>Label>Verse	*>Label>Verse	*>Label>Verse
2d	Love	2G	Love	1GM	newline	voice	.	34.775	G:maj
4d	love	4G	love	.	.	.	.	.	.
8f	me	8d	me	.	.	.	.	.	.
[8g	do	[8c	do	.	.	.	A	.	.
=23	=23	=23	=23	=23	=23	=23	=23	=23	=23
8g]	_	8c]	_	1CM	.	voice	.	36.422	C:maj
8r	.	8r	.	.	.	.	.	.	.
4r	.	4r	.	.	.	.	.	.	.
4r	.	4r	.	.	.	.	.	.	.
4f	You	4G	You	.	.	.	.	.	.
=24	=24	=24	=24	=24	=24	=24	=24	=24	=24
2d	know	2G	know	1GM	.	voice	.	38.069	G:maj
4d	I	4G	I	.	.	.	.	.	.
8f	love	8d	love	.	.	.	.	.	.
[8g	you	[8c	you	.	.	.	A	.	.
=25	=25	=25	=25	=25	=25	=25	=25	=25	=25
8g]	_	8c]	_	1CM	.	voice	.	39.716	C:maj
8r	.	8r	.	.	.	.	.	.	.
4r	.	4r	.	.	.	.	.	.	.
4r	.	4r	.	.	.	.	.	.	.
4f	I'll	4G	I'll	.	.	.	.	.	.
=26	=26	=26	=26	=26	=26	=26	=26	=26	=26
2d	al-	2G	al-	1GM	newline	voice	.	41.363	G:maj
4d	-ways	4G	-ways	.	.	.	.	.	.
8f	be	8d	be	.	.	.	.	.	.
[8g	true	[8c	true	.	.	.	A	.	.
=27	=27	=27	=27	=27	=27	=27	=27	=27	=27
8g]	_	8c]	_	1CM	.	voice	.	43.012	C:maj
8r	.	8r	.	.	.	.	.	.	.
4r	.	4r	.	.	.	.	.	.	.
4r	.	4r	.	.	.	.	.	.	.
4f	So	4d	So	.	.	.	.	.	.
=28	=28	=28	=28	=28	=28	=28	=28	=28	=28
2g	please	2e	please	1CM	.	voice	.	44.661	C:maj
4g	_	4d	_	.	.	.	.	.	.
4g	_	4c	_	.	.	.	.	.	.
=29	=29	=29	=29	=29	=29	=29	=29	=29	=29
[1g	_	[1e	_	1CM	.	voice	.	46.31	C:maj
=30	=30	=30	=30	=30	=30	=30	=30	=30	=30
8g]	_	8e]	_	1CM	.	voice	.	47.958	C:maj
4.r	.	4.r	.	.	.	.	.	.	.
4G	Love	2r	.	.	.	.	.	.	.
4G	me	.	.	.	.	.	.	.	.
=31	=31	=31	=31	=31	=31	=31	=31	=31	=31
*>Letter>A2	*>Letter>A2	*>Letter>A2	*>Letter>A2	*>Letter>A2	*>Letter>A2	*>Letter>A2	*>Letter>A2	*>Letter>A2	*>Letter>A2
*>Label>Interlude	*>Label>Interlude	*>Label>Interlude	*>Label>Interlude	*>Label>Interlude	*>Label>Interlude	*>Label>Interlude	*>Label>Interlude	*>Label>Interlude	*>Label>Interlude
8B-	do	1r	.	1GM	newline	harmonica	A	49.607	G:maj
2..G	_	.	.	.	.	.	.	.	.
=32	=32	=32	=32	=32	=32	=32	=32	=32	=32
4r	.	1r	.	1CM	.	harmonica	.	51.224	C:maj
8d-	Woh	.	.	.	.	.	.	.	.
4c	_	.	.	.	.	.	.	.	.
4r	.	.	.	.	.	.	.	.	.
[8B-	love	.	.	.	.	.	.	.	.
=33	=33	=33	=33	=33	=33	=33	=33	=33	=33
8B-]	_	1r	.	1GM	.	harmonica	.	52.841	G:maj
4G	me	.	.	.	.	.	.	.	.
[8G	do	.	.	.	.	.	A	.	.
2G]	_	.	.	.	.	.	.	.	.
=34	=34	=34	=34	=34	=34	=34	=34	=34	=34
1r	.	1r	.	1GM	.	harmonica	.	54.458	G:maj
=35	=35	=35	=35	=35	=35	=35	=35	=35	=35
*>Letter>C	*>Letter>C	*>Letter>C	*>Letter>C	*>Letter>C	*>Letter>C	*>Letter>C	*>Letter>C	*>Letter>C	*>Letter>C
*>Label>Bridge	*>Label>Bridge	*>Label>Bridge	*>Label>Bridge	*>Label>Bridge	*>Label>Bridge	*>Label>Bridge	*>Label>Bridge	*>Label>Bridge	*>Label>Bridge
2A	Some-	1r	.	1DM	newline	voice	.	56.076	D:maj
4A	-one	.	.	.	.	.	.	.	.
4G	to	.	.	.	.	.	.	.	.
=36	=36	=36	=36	=36	=36	=36	=36	=36	=36
2.F#	love	1r	.	1DM	.	voice	.	57.708	D:maj
4r	.	.	.	.	.	.	.	.	.
=37	=37	=37	=37	=37	=37	=37	=37	=37	=37
2g	Some-	2G	Some-	1CM	.	voice	.	59.34	C:maj
4f	-bo-	4F	-bo-	.	.	.	.	.	.
4c	-dy	4C	-dy	.	.	.	.	.	.
=38	=38	=38	=38	=38	=38	=38	=38	=38	=38
4B-	new	2.GG	new	1GM	.	voice	A	60.973	G:maj
2G	_	.	.	.	.	.	.	.	.
4r	.	4r	.	.	.	.	.	.	.
=39	=39	=39	=39	=39	=39	=39	=39	=39	=39
2A	Some-	1r	.	1DM	newline	voice	.	62.605	D:maj
4A	-one	.	.	.	.	.	.	.	.
4G	to	.	.	.	.	.	.	.	.
=40	=40	=40	=40	=40	=40	=40	=40	=40	=40
2.F#	love	1r	.	1DM	.	voice	.	64.248	D:maj
4r	.	.	.	.	.	.	.	.	.
=41	=41	=41	=41	=41	=41	=41	=41	=41	=41
2g	Some-	2G	Some-	1CM	.	voice	.	65.89	C:maj
4f	-one	4F	-one	.	.	.	.	.	.
4c	like	4C	like	.	.	.	.	.	.
=42	=42	=42	=42	=42	=42	=42	=42	=42	=42
4G	you	4GG	you	1GM	.	voice	A	67.532	G:maj
4r	.	4r	.	.	.	.	.	.	.
2r	.	2r	.	.	.	.	.	.	.
=43	=43	=43	=43	=43	=43	=43	=43	=43	=43
*>Letter>B	*>Letter>B	*>Letter>B	*>Letter>B	*>Letter>B	*>Letter>B	*>Letter>B	*>Letter>B	*>Letter>B	*>Letter>B
*>Label>Verse	*>Label>Verse	*>Label>Verse	*>Label>Verse	*>Label>Verse	*>Label>Verse	*>Label>Verse	*>Label>Verse	*>Label>Verse	*>Label>Verse
2d	Love	2G	Love	1GM	newline	voice	.	69.174	G:maj
4d	love	4G	love	.	.	.	.	.	.
8f	me	8d	me	.	.	.	.	.	.
[8g	do	[8c	do	.	.	.	A	.	.
=44	=44	=44	=44	=44	=44	=44	=44	=44	=44
8g]	_	8c]	_	1CM	.	voice	.	70.808	C:maj
8r	.	8r	.	.	.	.	.	.	.
4r	.	4r	.	.	.	.	.	.	.
4r	.	4r	.	.	.	.	.	.	.
4f	You	4G	You	.	.	.	A	.	.
=45	=45	=45	=45	=45	=45	=45	=45	=45	=45
2d	know	2G	know	1GM	.	voice	.	72.441	G:maj
4d	I	4G	I	.	.	.	.	.	.
8f	love	8d	love	.	.	.	.	.	.
[8g	you	[8c	you	.	.	.	A	.	.
=46	=46	=46	=46	=46	=46	=46	=46	=46	=46
8g]	_	8c]	_	1CM	.	voice	.	74.075	C:maj
8r	.	8r	.	.	.	.	.	.	.
4r	.	4r	.	.	.	.	.	.	.
4r	.	4r	.	.	.	.	.	.	.
4f	I'll	4G	I'll	.	.	.	.	.	.
=47	=47	=47	=47	=47	=47	=47	=47	=47	=47
2d	al-	2G	al-	1GM	newline	voice	.	75.708	G:maj
4d	-ways	4G	-ways	.	.	.	.	.	.
8f	be	8d	be	.	.	.	.	.	.
[8g	true	[8c	true	.	.	.	A	.	.
=48	=48	=48	=48	=48	=48	=48	=48	=48	=48
8g]	_	8c]	_	1CM	.	voice	.	77.354	C:maj
8r	.	8r	.	.	.	.	.	.	.
4r	.	4r	.	.	.	.	.	.	.
4r	.	4r	.	.	.	.	.	.	.
4f	So	4d	So	.	.	.	.	.	.
=49	=49	=49	=49	=49	=49	=49	=49	=49	=49
2g	please	2e	please	1CM	.	voice	.	79.001	C:maj
4g	_	4d	_	.	.	.	.	.	.
4g	_	4c	_	.	.	.	.	.	.
=50	=50	=50	=50	=50	=50	=50	=50	=50	=50
[1g	_	[1e	_	1CM	.	voice	.	80.647	C:maj
=51	=51	=51	=51	=51	=51	=51	=51	=51	=51
8g]	_	8e]	_	1CM	.	voice	.	82.293	C:maj
4.r	.	4.r	.	.	.	.	.	.	.
4G	Love	2r	.	.	.	.	.	.	.
4G	me	.	.	.	.	.	.	.	.
=52	=52	=52	=52	=52	=52	=52	=52	=52	=52
*>Letter>A2	*>Letter>A2	*>Letter>A2	*>Letter>A2	*>Letter>A2	*>Letter>A2	*>Letter>A2	*>Letter>A2	*>Letter>A2	*>Letter>A2
*>Label>Interlude	*>Label>Interlude	*>Label>Interlude	*>Label>Interlude	*>Label>Interlude	*>Label>Interlude	*>Label>Interlude	*>Label>Interlude	*>Label>Interlude	*>Label>Interlude
8B-	do	1r	.	1GM	newline	harmonica	A	83.94	G:maj
2..G	_	.	.	.	.	.	.	.	.
=53	=53	=53	=53	=53	=53	=53	=53	=53	=53
4r	.	1r	.	1CM	.	harmonica	.	85.569	C:maj
8d-	Woh	.	.	.	.	.	.	.	.
4.c	_	.	.	.	.	.	.	.	.
4r	.	.	.	.	.	.	.	.	.
=54	=54	=54	=54	=54	=54	=54	=54	=54	=54
8B-	love	1r	.	1GM	.	harmonica	.	87.198	G:maj
4G	me	.	.	.	.	.	.	.	.
[8G	do	.	.	.	.	.	A	.	.
2G_	_	.	.	.	.	.	.	.	.
=55	=55	=55	=55	=55	=55	=55	=55	=55	=55
4G]	_	1r	.	1GM	.	harmonica	.	88.827	G:maj
4r	.	.	.	.	.	.	.	.	.
2r	.	.	.	.	.	.	.	.	.
=56	=56	=56	=56	=56	=56	=56	=56	=56	=56
*>Letter>C	*>Letter>C	*>Letter>C	*>Letter>C	*>Letter>C	*>Letter>C	*>Letter>C	*>Letter>C	*>Letter>C	*>Letter>C
*>Label>Solo	*>Label>Solo	*>Label>Solo	*>Label>Solo	*>Label>Solo	*>Label>Solo	*>Label>Solo	*>Label>Solo	*>Label>Solo	*>Label>Solo
1r	.	1r	.	1DM	newline	harmonica	.	90.456	D:maj
=57	=57	=57	=57	=57	=57	=57	=57	=57	=57
1r	.	1r	.	1DM	.	harmonica	.	92.056	D:maj
=58	=58	=58	=58	=58	=58	=58	=58	=58	=58
1r	.	1r	.	1CM	.	harmonica	.	93.655	C:maj
=59	=59	=59	=59	=59	=59	=59	=59	=59	=59
1r	.	1r	.	1GM	.	harmonica	.	95.254	G:maj
=60	=60	=60	=60	=60	=60	=60	=60	=60	=60
1r	.	1r	.	1DM	newline	harmonica	.	96.854	D:maj
=61	=61	=61	=61	=61	=61	=61	=61	=61	=61
1r	.	1r	.	1DM	.	harmonica	.	98.467	D:maj
=62	=62	=62	=62	=62	=62	=62	=62	=62	=62
1r	.	1r	.	1CM	.	harmonica	.	100.081	C:maj
=63	=63	=63	=63	=63	=63	=63	=63	=63	=63
1r	.	1r	.	1GM	.	harmonica	.	101.694	G:maj
=64	=64	=64	=64	=64	=64	=64	=64	=64	=64
*>Letter>A3	*>Letter>A3	*>Letter>A3	*>Letter>A3	*>Letter>A3	*>Letter>A3	*>Letter>A3	*>Letter>A3	*>Letter>A3	*>Letter>A3
*>Label>Trans	*>Label>Trans	*>Label>Trans	*>Label>Trans	*>Label>Trans	*>Label>Trans	*>Label>Trans	*>Label>Trans	*>Label>Trans	*>Label>Trans
1r	.	1r	.	1GM	newline	harmonica	.	103.308	G:maj
=65	=65	=65	=65	=65	=65	=65	=65	=65	=65
1r	.	1r	.	1GM	.	harmonica	.	104.932	G:maj
=66	=66	=66	=66	=66	=66	=66	=66	=66	=66
1r	.	1r	.	1GM	.	harmonica	.	106.556	G:maj
=67	=67	=67	=67	=67	=67	=67	=67	=67	=67
1r	.	1r	.	2GM	.	harmonica	.	108.18	G:maj
.	.	.	.	2DM	.	harmonica	.	108.992	D:maj
=68	=68	=68	=68	=68	=68	=68	=68	=68	=68
*>Letter>B	*>Letter>B	*>Letter>B	*>Letter>B	*>Letter>B	*>Letter>B	*>Letter>B	*>Letter>B	*>Letter>B	*>Letter>B
*>Label>Verse	*>Label>Verse	*>Label>Verse	*>Label>Verse	*>Label>Verse	*>Label>Verse	*>Label>Verse	*>Label>Verse	*>Label>Verse	*>Label>Verse
2d	Love	2G	Love	1GM	newline	voice	.	109.804	G:maj
4d	love	4G	love	.	.	.	.	.	.
8f	me	8d	me	.	.	.	.	.	.
[8g	do	[8c	do	.	.	.	A	.	.
=69	=69	=69	=69	=69	=69	=69	=69	=69	=69
8g]	_	8c]	_	1CM	.	voice	.	111.402	C:maj
8r	.	8r	.	.	.	.	.	.	.
4r	.	4r	.	.	.	.	.	.	.
4r	.	4r	.	.	.	.	.	.	.
4f	You	4G	You	.	.	.	A	.	.
=70	=70	=70	=70	=70	=70	=70	=70	=70	=70
2d	know	2G	know	1GM	.	voice	.	113	G:maj
4d	I	4G	I	.	.	.	.	.	.
8f	love	8d	love	.	.	.	.	.	.
[8g	you	[8c	you	.	.	.	A	.	.
=71	=71	=71	=71	=71	=71	=71	=71	=71	=71
8g]	_	8c]	_	1CM	.	voice	.	114.598	C:maj
8r	.	8r	.	.	.	.	.	.	.
4r	.	4r	.	.	.	.	.	.	.
4r	.	4r	.	.	.	.	.	.	.
4f	I'll	4G	I'll	.	.	.	.	.	.
=72	=72	=72	=72	=72	=72	=72	=72	=72	=72
2d	al-	2G	al-	1GM	newline	voice	.	116.197	G:maj
4d	-ways	4G	-ways	.	.	.	.	.	.
8f	be	8d	be	.	.	.	.	.	.
[8g	true	[8c	true	.	.	.	A	.	.
=73	=73	=73	=73	=73	=73	=73	=73	=73	=73
8g]	_	8c]	_	1CM	.	voice	.	117.829	C:maj
8r	.	8r	.	.	.	.	.	.	.
4r	.	4r	.	.	.	.	.	.	.
4r	.	4r	.	.	.	.	.	.	.
4f	So	4d	So	.	.	.	.	.	.
=74	=74	=74	=74	=74	=74	=74	=74	=74	=74
2g	please	2e	please	1CM	.	voice	.	119.462	C:maj
4g	_	4d	_	.	.	.	.	.	.
4g	_	4c	_	.	.	.	.	.	.
=75	=75	=75	=75	=75	=75	=75	=75	=75	=75
[1g	_	[1e	_	1CM	.	voice	.	121.095	C:maj
=76	=76	=76	=76	=76	=76	=76	=76	=76	=76
8g]	_	8e]	_	1CM	.	voice	.	122.728	C:maj
4.r	.	4.r	.	.	.	.	.	.	.
4G	Love	2r	.	.	.	.	.	.	.
4G	me	.	.	.	.	.	.	.	.
=77	=77	=77	=77	=77	=77	=77	=77	=77	=77
*>Letter>A	*>Letter>A	*>Letter>A	*>Letter>A	*>Letter>A	*>Letter>A	*>Letter>A	*>Letter>A	*>Letter>A	*>Letter>A
*>Label>Outro	*>Label>Outro	*>Label>Outro	*>Label>Outro	*>Label>Outro	*>Label>Outro	*>Label>Outro	*>Label>Outro	*>Label>Outro	*>Label>Outro
8B-	do	1r	.	1GM	newline	harmonica	A	124.36	G:maj
2..G	_	.	.	.	.	.	.	.	.
=78	=78	=78	=78	=78	=78	=78	=78	=78	=78
4r	.	1r	.	1CM	.	harmonica	.	125.971	C:maj
8d-	Woh	.	.	.	.	.	.	.	.
4c	_	.	.	.	.	.	.	.	.
4r	.	.	.	.	.	.	.	.	.
[8B-	love	.	.	.	.	.	.	.	.
=79	=79	=79	=79	=79	=79	=79	=79	=79	=79
8B-]	_	1r	.	1GM	.	harmonica	.	127.581	G:maj
4G	me	.	.	.	.	.	.	.	.
[8G	do	.	.	.	.	.	A	.	.
2G]	_	.	.	.	.	.	.	.	.
=80	=80	=80	=80	=80	=80	=80	=80	=80	=80
4.r	.	1r	.	1CM	.	harmonica	.	129.191	C:maj
2g	Yeah	.	.	.	.	.	.	.	.
[8b-	love	.	.	.	.	.	.	.	.
=81	=81	=81	=81	=81	=81	=81	=81	=81	=81
*>Label>>Fadeout	*>Label>>Fadeout	*>Label>>Fadeout	*>Label>>Fadeout	*>Label>>Fadeout	*>Label>>Fadeout	*>Label>>Fadeout	*>Label>>Fadeout	*>Label>>Fadeout	*>Label>>Fadeout
8b-]	_	1r	.	1GM	newline	harmonica voice	.	130.802	G:maj
4g	me	.	.	.	.	.	.	.	.
[8g	do	.	.	.	.	.	A	.	.
4g]	_	.	.	.	.	.	.	.	.
4r	.	.	.	.	.	.	.	.	.
=82	=82	=82	=82	=82	=82	=82	=82	=82	=82
4r	.	1r	.	1CM	.	harmonica voice	.	132.25	C:maj
8d-	Woh	.	.	.	.	.	.	.	.
4.c	_	.	.	.	.	.	.	.	.
4r	.	.	.	.	.	.	.	.	.
=83	=83	=83	=83	=83	=83	=83	=83	=83	=83
8B-	love	1r	.	1GM	.	harmonica voice	.	133.698	G:maj
4G	me	.	.	.	.	.	.	.	.
[8G	do	.	.	.	.	.	A	.	.
2G]	_	.	.	.	.	.	.	.	.
=84	=84	=84	=84	=84	=84	=84	=84	=84	=84
4.r	.	1r	.	1CM	.	harmonica voice	.	135.146	C:maj
4.B-	Yeah	.	.	.	.	.	.	.	.
4r	.	.	.	.	.	.	.	.	.
=85	=85	=85	=85	=85	=85	=85	=85	=85	=85
1r	.	1r	.	1GM	.	harmonica voice	.	136.594	G:maj
r;	.	r;	.	1r;	.	r	.	138.043	N.C.
r;	.	r;	.	1r;	.	r	.	142.811	N.C.
*-	*-	*-	*-	*-	*-	*-	*-	*-	*-
!!!BillboardChartDate: 1964/07/11
!!!BillboardPeak: 1
!!!BillboardWeeksOnChart: 14
!!!COC: The Beatles
!!!ENC: Nathaniel Condit-Schultz
!!!EST: Awating manual error checking and editing.
!!!OTL: Love Me Do
!!!RDF**chordsym: original McGill chord annotation + (implied pitch class set, with bass pitch in first position)
!!!RDF**harmony: **recip + pitch class of root + harmonic quality
!!!RDF**leadinstrument: original McGill primary instrumentation annotation
!!!RDF**phrase: newline = linebreak in original McGill transcription
!!!RDF**timestamp: McGill audio timestamp in seconds
!!!RDT: 2017/01/12/
!!!SampleActualRank: 24
!!!SampleID#: 0050
!!!SampleTargetRank: 23
